credit-card-scan.svg

<svg fill="currentColor" viewBox="0 0 24 24"><path d="M18 6H6a2 2 0 0 0-2 2v8a2 2 0 0 0 2 2h12a2 2 0 0 0 2-2V8a2 2 0 0 0-2-2m0 6H6V9h12M2 4h4V2H2a2 2 0 0 0-2 2v4h2zm20-2h-4v2h4v4h2V4a2 2 0 0 0-2-2M2 16H0v4a2 2 0 0 0 2 2h4v-2H2zm20 4h-4v2h4a2 2 0 0 0 2-2v-4h-2z"/></svg>

<svg  viewBox="0 0 24 24" fill="currentColor"><path  d="M18 6H6A2 2 0 0 0 4 8V16A2 2 0 0 0 6 18H18A2 2 0 0 0 20 16V8A2 2 0 0 0 18 6M18 12H6V9H18M2 4H6V2H2A2 2 0 0 0 0 4V8H2V4M22 2H18V4H22V8H24V4A2 2 0 0 0 22 2M2 16H0V20A2 2 0 0 0 2 22H6V20H2V16M22 20H18V22H22A2 2 0 0 0 24 20V16H22V20"/></svg>
